!!!COM: Schubert, Franz
!!!CNT: Deutscher
!!!TXO: Deutsch
!!!LYR: Nach Anakreon von Franz Seraph Ritter von Bruchmann
!!!OTL: "An die Leyer"
!!!OPS: Op. 56
!!!ONM: No. 2
!!!ODT: 1822/
!!NB: Vocal melody only encoded.
!!NB: Original key 
**kern	**silbe
*clefG4	*
*k[b-e-a-]	*
*M4/4	*
*MM[geschwind]	*
=4	=4
2.r	.
{4dd-	{Ich
=5	=5
4.dd-	will
8dd-	von
4.dd-	A-
8dd-	-treus'
=6	=6
4dd-	So2h-
4a-}	-nen,}
4r	.
{4a-	{von
=7	=7
[2b-	Kad-
8b-]	|
8a-	-mus
12g-	will
12f	|
12e-	ich
=8	=8
8g-q	sin-
4f	|
4f}	-gen!}
2r	.
=15	=15
2..r	.
{8B-	{Doch
=16	=16
4e-	mei-
4e-	-ne
4e-	Sai-
4e-	-ten
=17	=17
2g	to2-
4f	-nen
4cc	nur
=18	=18
2cc	Lie-
4b-	-be
8f	im
8g	Er-
=19	=19
2a-	-klin-
4g}	-gen,}
{4b-	{doch
=20	=20
4f	mei-
4a-	-ne
4g	Sai-
4b-	-ten
=21	=21
4.b-	to2-
8a-	|
4g	-nen
4ee-	nur
=22	=22
4dd	Lie-
8ee-	|
8ff	|
4ee-	-be
8a-	im
8a-	Er-
=23	=23
2g	-klin-
4f	|
8.g	|
16f	|
=24	=24
4e-}	-gen.}
2.r	.
=31	=31
2.r	.
{4cc	{Ich
=32	=32
4.cc	tausch-
8cc	-te
4.cc	um
8cc	die
=33	=33
4dd-	Sai-
4b-}	-ten,}
4r	.
8r	.
{8dd-	{die
=34	=34
[2ee-	Ley-
8ee-]	|
8dd-	-er
12cc-	mo2cht'
12b-	|
12a-	ich
=35	=35
8cc-q	tau-
4b-	|
4b-}	-schen.}
4r	.
{4dd-	{Al-
=36	=36
4.dd-	-ci-
8dd-	-dens
4.dd-	Sie-
8cc-	-ges-
=37	=37
8cc-q	-schrei-
4b-	|
4b-}	-ten}
4.r	.
{8a-	{sollt'
=38	=38
4.g-	ih-
8g-	-rer
8g-	Macht
8b-	|
8dd-	ent-
8ff-	|
=39	=39
8ff-q	-rau-
4ee-	|
4ee-}	-schen!}
2r	.
=46	=46
2..r	.
{8B-	{Doch
=47	=47
4e-	auch
4e-	die
4e-	Sai-
4e-	-ten
=48	=48
2g	to2-
4f	-nen
4cc	nur
=49	=49
2cc	Lie-
4b-	-be
8f	im
8g	Er-
=50	=50
2a-	-klin-
4g}	-gen,}
{4b-	{doch
=51	=51
4f	auch
4a-	die
4g	Sai-
4b-	-ten
=52	=52
4.b-	to2-
8a-	|
4g	-nen
4ee-	nur
=53	=53
4dd	Lie-
8ee-	|
8ff	|
4ee-	-be
8a-	im
8a-	Er-
=54	=54
2g	-klin-
4f	|
8.g	|
16f	|
=55	=55
2e-}	-gen!}
2r	.
=56	=56
2..r	.
{8g	{So
=57	=57
2.g	lebt
4g	denn
=58	=58
2a-	wohl,
4r	.
4cc	He-
=59	=59
[2.cc	-ro-
8cc]	|
8b-	|
=60	=60
4a-}	-en,}
4r	.
{2cc	{denn
=61	=61
4f	mei-
4a-	-ne
4g	Sai-
4b-	-ten
=62	=62
4.b-	to2-
8a-	|
4g	-nen,
4b-	statt
=63	=63
4.dd-	Hel-
8dd-	-den-
4dd-	-sang
4dd-	zu
=64	=64
4.cc	dro-
8b-	|
4a-	-hen,
4cc	nur
=65	=65
4ddn	Lie-
8ee-	|
8ff	|
4ee-	-be
8a-	im
8a-	Er-
=66	=66
2g	-klin-
4f	|
8.b-	|
16a-	|
=67	=67
4g}	-gen.}
4.r	.
{8g	{So
8g	lebt
8g	denn
=68	=68
2.cc	wohl,
8r	.
8ee-	He-
=69	=69
2.ee-	-ro-
8ee-	|
8dd-	|
=70	=70
4cc}	-en,}
4r	.
{2cc	{denn
=71	=71
4f	mei-
4a-	-ne
4g	Sai-
4b-	-ten
=72	=72
4.b-	to2-
8a-	|
4g	-nen,
4b-	statt
=73	=73
4.dd-	Hel-
8dd-	-den-
4dd-	-sang
4dd-	zu
=74	=74
4.cc	dro-
8b-	|
4a-	-hen,
4cc	nur
=75	=75
4dd	Lie-
8ee-	|
8ff	|
4ee-	-be
8a-	im
8a-	Er-
=76	=76
2g	-klin-
4f	|
8.g	|
16f	|
=77	=77
4e-}	-gen.}
2.r	.
*-	*-
